Candle/ch2.svg

<svg xmlns="http://www.w3.org/2000/svg" viewBox="0 0 1200 800" preserveAspectRatio="none" width="1200" height="800">
 <title>
  ROOT canvas
 </title>
 <path d="M0,0H1200V800H0Z" style="fill: none;"></path>
 <g>
  <g transform="translate(120,80)">
   <title></title>
   <path d="M0,0H960V640H0Z" style="fill: white; stroke: black; stroke-width: 1;"></path>
   <svg x="0" y="0" overflow="hidden" width="960" height="640" viewBox="0 0 960 640">
    <g>
     <path d="M444,611h-96v10h96zM615,595h-117v10h117zM640,579h-280v10h280zM493,563h-115v10h115zM518,547h-143v10h143zM614,531h-225v10h225zM554,515h-173v10h173zM549,499h-140v10h140zM549,483h-152v10h152zM575,467h-165v10h165zM559,451h-162v10h162zM550,435h-153v10h153zM564,419h-165v10h165zM557,403h-166v10h166zM564,387h-161v10h161zM564,371h-174v10h174zM566,355h-168v10h168zM561,339h-163v10h163zM567,323h-165v10h165zM562,307h-157v10h157zM556,291h-156v10h156zM564,275h-161v10h161zM553,259h-155v10h155zM565,243h-167v10h167zM571,227h-177v10h177zM565,211h-170v10h170zM565,195h-162v10h162zM565,179h-165v10h165zM562,163h-153v10h153zM579,147h-177v10h177zM563,131h-161v10h161zM572,115h-175v10h175zM582,99h-187v10h187zM555,83h-225v10h225zM521,67h-131v10h131zM516,51h-120v10h120zM525,35h-111v10h111zM210,19h-12v10h12zM282,3h-12v10h12z" style="stroke: #00009a; stroke-width: 1; fill: none;"></path>
     <path d="M396,611v10M456,611v10M336,611v10M444,616h12M348,616h-12M606,595v10M624,595v10M480,595v10M615,600h9M498,600h-18M492,579v10M768,579v10M264,579v10M640,584h128M360,584h-96M425,563v10M624,563v10M312,563v10M493,568h131M378,568h-66M444,547v10M648,547v10M192,547v10M518,552h130M375,552h-183M492,531v10M888,531v10M168,531v10M614,536h274M389,536h-221M474,515v10M744,515v10M144,515v10M554,520h190M381,520h-237M482,499v10M768,499v10M216,499v10M549,504h219M409,504h-193M469,483v10M816,483v10M192,483v10M549,488h267M397,488h-205M494,467v10M864,467v10M168,467v10M575,472h289M410,472h-242M477,451v10M840,451v10M144,451v10M559,456h281M397,456h-253M472,435v10M816,435v10M144,435v10M550,440h266M397,440h-253M478,419v10M792,419v10M144,419v10M564,424h228M399,424h-255M475,403v10M840,403v10M120,403v10M557,408h283M391,408h-271M482,387v10M840,387v10M168,387v10M564,392h276M403,392h-235M481,371v10M864,371v10M144,371v10M564,376h300M390,376h-246M481,355v10M864,355v10M144,355v10M566,360h298M398,360h-254M479,339v10M840,339v10M144,339v10M561,344h279M398,344h-254M486,323v10M840,323v10M144,323v10M567,328h273M402,328h-258M484,307v10M840,307v10M168,307v10M562,312h278M405,312h-237M480,291v10M816,291v10M144,291v10M556,296h260M400,296h-256M482,275v10M840,275v10M144,275v10M564,280h276M403,280h-259M474,259v10M816,259v10M144,259v10M553,264h263M398,264h-254M481,243v10M840,243v10M144,243v10M565,248h275M398,248h-254M482,227v10M864,227v10M120,227v10M571,232h293M394,232h-274M477,211v10M864,211v10M168,211v10M565,216h299M395,216h-227M484,195v10M816,195v10M144,195v10M565,200h251M403,200h-259M488,179v10M768,179v10M168,179v10M565,184h203M400,184h-232M480,163v10M816,163v10M216,163v10M562,168h254M409,168h-193M492,147v10M816,147v10M168,147v10M579,152h237M402,152h-234M474,131v10M816,131v10M144,131v10M563,136h253M402,136h-258M492,115v10M816,115v10M168,115v10M572,120h244M397,120h-229M468,99v10M864,99v10M144,99v10M582,104h282M395,104h-251M450,83v10M696,83v10M216,83v10M555,88h141M330,88h-114M486,67v10M696,67v10M288,67v10M521,72h175M390,72h-102M432,51v10M672,51v10M360,51v10M516,56h156M396,56h-36M510,35v10M552,35v10M336,35v10M525,40h27M414,40h-78M204,19v10M216,19v10M192,19v10M210,24h6M198,24h-6M276,3v10M288,3v10M264,3v10M282,8h6M270,8h-6" style="stroke: #00009a; stroke-width: 1; fill: none;"></path>
     <path d="M396,611v10M572,595v10M497,579v10M435,563v10M443,547v10M494,531v10M467,515v10M475,499v10M474,483v10M493,467v10M477,451v10M475,435v10M479,419v10M475,403v10M482,387v10M478,371v10M482,355v10M479,339v10M484,323v10M484,307v10M479,291v10M481,275v10M477,259v10M481,243v10M481,227v10M478,211v10M483,195v10M481,179v10M487,163v10M491,147v10M483,131v10M495,115v10M473,99v10M455,83v10M468,67v10M484,51v10M468,35v10M204,19v10M276,3v10" style="stroke: #00009a; stroke-width: 1; stroke-dasharray: 3,3; fill: none;"></path>
     <path d="M176,564l8,8m0,-8l-8,8M152,500l8,8m0,-8l-8,8M80,468l8,8m0,-8l-8,8M128,452l8,8m0,-8l-8,8M842,452l8,8m0,-8l-8,8M849,452l8,8m0,-8l-8,8M98,436l8,8m0,-8l-8,8M105,436l8,8m0,-8l-8,8M124,436l8,8m0,-8l-8,8M131,436l8,8m0,-8l-8,8M824,436l8,8m0,-8l-8,8M872,436l8,8m0,-8l-8,8M122,420l8,8m0,-8l-8,8M129,420l8,8m0,-8l-8,8M124,420l8,8m0,-8l-8,8M848,420l8,8m0,-8l-8,8M80,404l8,8m0,-8l-8,8M104,404l8,8m0,-8l-8,8M56,388l8,8m0,-8l-8,8M104,388l8,8m0,-8l-8,8M128,388l8,8m0,-8l-8,8M848,388l8,8m0,-8l-8,8M872,388l8,8m0,-8l-8,8M80,372l8,8m0,-8l-8,8M104,372l8,8m0,-8l-8,8M872,372l8,8m0,-8l-8,8M8,356l8,8m0,-8l-8,8M74,356l8,8m0,-8l-8,8M81,356l8,8m0,-8l-8,8M100,356l8,8m0,-8l-8,8M107,356l8,8m0,-8l-8,8M94,356l8,8m0,-8l-8,8M109,356l8,8m0,-8l-8,8M134,356l8,8m0,-8l-8,8M128,356l8,8m0,-8l-8,8M872,356l8,8m0,-8l-8,8M944,356l8,8m0,-8l-8,8M80,340l8,8m0,-8l-8,8M98,340l8,8m0,-8l-8,8M105,340l8,8m0,-8l-8,8M100,340l8,8m0,-8l-8,8M131,340l8,8m0,-8l-8,8M118,340l8,8m0,-8l-8,8M133,340l8,8m0,-8l-8,8M134,340l8,8m0,-8l-8,8M848,340l8,8m0,-8l-8,8M837,340l8,8m0,-8l-8,8M872,340l8,8m0,-8l-8,8M905,340l8,8m0,-8l-8,8M907,340l8,8m0,-8l-8,8M104,324l8,8m0,-8l-8,8M122,324l8,8m0,-8l-8,8M129,324l8,8m0,-8l-8,8M124,324l8,8m0,-8l-8,8M851,324l8,8m0,-8l-8,8M838,324l8,8m0,-8l-8,8M104,308l8,8m0,-8l-8,8M122,308l8,8m0,-8l-8,8M129,308l8,8m0,-8l-8,8M148,308l8,8m0,-8l-8,8M155,308l8,8m0,-8l-8,8M142,308l8,8m0,-8l-8,8M74,292l8,8m0,-8l-8,8M81,292l8,8m0,-8l-8,8M76,292l8,8m0,-8l-8,8M104,292l8,8m0,-8l-8,8M131,292l8,8m0,-8l-8,8M118,292l8,8m0,-8l-8,8M829,292l8,8m0,-8l-8,8M830,292l8,8m0,-8l-8,8M872,292l8,8m0,-8l-8,8M32,276l8,8m0,-8l-8,8M56,276l8,8m0,-8l-8,8M98,276l8,8m0,-8l-8,8M105,276l8,8m0,-8l-8,8M100,276l8,8m0,-8l-8,8M128,276l8,8m0,-8l-8,8M104,260l8,8m0,-8l-8,8M122,260l8,8m0,-8l-8,8M129,260l8,8m0,-8l-8,8M820,260l8,8m0,-8l-8,8M827,260l8,8m0,-8l-8,8M814,260l8,8m0,-8l-8,8M853,260l8,8m0,-8l-8,8M854,260l8,8m0,-8l-8,8M872,260l8,8m0,-8l-8,8M896,260l8,8m0,-8l-8,8M122,244l8,8m0,-8l-8,8M129,244l8,8m0,-8l-8,8M872,244l8,8m0,-8l-8,8M104,196l8,8m0,-8l-8,8M104,180l8,8m0,-8l-8,8M128,180l8,8m0,-8l-8,8M818,164l8,8m0,-8l-8,8M825,164l8,8m0,-8l-8,8M800,52l8,8m0,-8l-8,8" style="stroke: #00009a; fill: none;"></path>
    </g>
   </svg>
   <g>
    <g transform="translate(0,640)">
     <path d="M0,0h960" style="stroke: black; stroke-width: 1;"></path>
     <path d="M0,-24v24m24,-12v12m24,-12v12m24,-12v12m24,-12v12m24,-24v24m24,-12v12m24,-12v12m24,-12v12m24,-12v12m24,-24v24m24,-12v12m24,-12v12m24,-12v12m24,-12v12m24,-24v24m24,-12v12m24,-12v12m24,-12v12m24,-12v12m24,-24v24m24,-12v12m24,-12v12m24,-12v12m24,-12v12m24,-24v24m24,-12v12m24,-12v12m24,-12v12m24,-12v12m24,-24v24m24,-12v12m24,-12v12m24,-12v12m24,-12v12m24,-24v24m24,-12v12m24,-12v12m24,-12v12m24,-12v12m24,-24v24" style="stroke: black; stroke-width: 1;"></path>
     <g font-family="Arial" font-size="28" space="preserve">
      <text fill="black" text-anchor="middle" dy=".8em" transform="translate(0,6)">
       -4
      </text>
      <text fill="black" text-anchor="middle" dy=".8em" transform="translate(120,6)">
       -3
      </text>
      <text fill="black" text-anchor="middle" dy=".8em" transform="translate(240,6)">
       -2
      </text>
      <text fill="black" text-anchor="middle" dy=".8em" transform="translate(360,6)">
       -1
      </text>
      <text fill="black" text-anchor="middle" dy=".8em" transform="translate(480,6)">
       0
      </text>
      <text fill="black" text-anchor="middle" dy=".8em" transform="translate(600,6)">
       1
      </text>
      <text fill="black" text-anchor="middle" dy=".8em" transform="translate(720,6)">
       2
      </text>
      <text fill="black" text-anchor="middle" dy=".8em" transform="translate(840,6)">
       3
      </text>
      <text fill="black" text-anchor="middle" dy=".8em" transform="translate(960,6)">
       4
      </text>
     </g>
    </g>
    <g>
     <path d="M0,0v640" style="stroke: black; stroke-width: 1;"></path>
     <path d="M36,640h-36m18,-16h-18m18,-16h-18m18,-16h-18m18,-16h-18m36,-16h-36m18,-16h-18m18,-16h-18m18,-16h-18m18,-16h-18m36,-16h-36m18,-16h-18m18,-16h-18m18,-16h-18m18,-16h-18m36,-16h-36m18,-16h-18m18,-16h-18m18,-16h-18m18,-16h-18m36,-16h-36m18,-16h-18m18,-16h-18m18,-16h-18m18,-16h-18m36,-16h-36m18,-16h-18m18,-16h-18m18,-16h-18m18,-16h-18m36,-16h-36m18,-16h-18m18,-16h-18m18,-16h-18m18,-16h-18m36,-16h-36m18,-16h-18m18,-16h-18m18,-16h-18m18,-16h-18m36,-16h-36" style="stroke: black; stroke-width: 1;"></path>
     <g font-family="Arial" font-size="28" space="preserve">
      <text fill="black" text-anchor="end" dy=".4em" transform="translate(-4,640)">
       -4
      </text>
      <text fill="black" text-anchor="end" dy=".4em" transform="translate(-4,560)">
       -3
      </text>
      <text fill="black" text-anchor="end" dy=".4em" transform="translate(-4,480)">
       -2
      </text>
      <text fill="black" text-anchor="end" dy=".4em" transform="translate(-4,400)">
       -1
      </text>
      <text fill="black" text-anchor="end" dy=".4em" transform="translate(-4,320)">
       0
      </text>
      <text fill="black" text-anchor="end" dy=".4em" transform="translate(-4,240)">
       1
      </text>
      <text fill="black" text-anchor="end" dy=".4em" transform="translate(-4,160)">
       2
      </text>
      <text fill="black" text-anchor="end" dy=".4em" transform="translate(-4,80)">
       3
      </text>
      <text fill="black" text-anchor="end" dy=".4em" transform="translate(-4)">
       4
      </text>
     </g>
    </g>
   </g>
  </g>
  <g transform="translate(120,4)" font-family="Arial" font-size="40" space="preserve">
   <path d="M0,0H960V53H0Z" style="fill: none;"></path>
   <text fill="black" text-anchor="middle" dy=".8em" transform="translate(480)">
    py vs px
   </text>
  </g>
  <g transform="translate(936,52)" font-family="Arial" font-size="20" space="preserve">
   <path d="M0,0H240V212H0Z" style="fill: white; stroke: black; stroke-width: 1;"></path>
   <text fill="black" text-anchor="middle" dy=".4em" transform="translate(120,18)">
    hpxpy
   </text>
   <text fill="black" text-anchor="start" dy=".4em" transform="translate(12,53)">
    Entries
   </text>
   <text fill="black" text-anchor="end" dy=".4em" transform="translate(228,53)">
    25000
   </text>
   <text fill="black" text-anchor="start" dy=".4em" transform="translate(12,88)">
    Mean x
   </text>
   <text fill="black" text-anchor="end" dy=".4em" transform="translate(228,88)">
    0.003181
   </text>
   <text fill="black" text-anchor="start" dy=".4em" transform="translate(12,124)">
    Mean y
   </text>
   <text fill="black" text-anchor="end" dy=".4em" transform="translate(228,124)">
    0.009441
   </text>
   <text fill="black" text-anchor="start" dy=".4em" transform="translate(12,159)">
    Std Dev x
   </text>
   <text fill="black" text-anchor="end" dy=".4em" transform="translate(228,159)">
    1.004
   </text>
   <text fill="black" text-anchor="start" dy=".4em" transform="translate(12,194)">
    Std Dev y
   </text>
   <text fill="black" text-anchor="end" dy=".4em" transform="translate(228,194)">
    0.9972
   </text>
   <path d="M0,35h240" style="stroke: black; stroke-width: 1;"></path>
  </g>
 </g>
</svg>

<svg xmlns="http://www.w3.org/2000/svg" viewBox="0 0 1200 800" preserveAspectRatio="none" width="1200" height="800">
 <title>
  ROOT canvas
 </title>
 <path d="M0,0H1200V800H0Z" style="fill: none;"></path>
 <g>
  <g transform="translate(120,80)">
   <title></title>
   <path d="M0,0H960V640H0Z" style="fill: white; stroke: black; stroke-width: 1;"></path>
   <svg x="0" y="0" overflow="hidden" width="960" height="640" viewBox="0 0 960 640">
    <g>
     <path d="M444,611H348V621H444ZM615,595H498V605H615ZM640,579H360V589H640ZM493,563H378V573H493ZM518,547H375V557H518ZM614,531H389V541H614ZM554,515H381V525H554ZM549,499H409V509H549ZM549,483H397V493H549ZM575,467H410V477H575ZM559,451H397V461H559ZM550,435H397V445H550ZM564,419H399V429H564ZM557,403H391V413H557ZM564,387H403V397H564ZM564,371H390V381H564ZM566,355H398V365H566ZM561,339H398V349H561ZM567,323H402V333H567ZM562,307H405V317H562ZM556,291H400V301H556ZM564,275H403V285H564ZM553,259H398V269H553ZM565,243H398V253H565ZM571,227H394V237H571ZM565,211H395V221H565ZM565,195H403V205H565ZM565,179H400V189H565ZM562,163H409V173H562ZM579,147H402V157H579ZM563,131H402V141H563ZM572,115H397V125H572ZM582,99H395V109H582ZM555,83H330V93H555ZM521,67H390V77H521ZM516,51H396V61H516ZM525,35H414V45H525ZM210,19H198V29H210ZM282,3H270V13H282Z" style="stroke: #00009a; stroke-width: 1; fill: none;"></path>
     <path d="M396,611V621M456,611V621M336,611V621M444,616H456M348,616H336M606,595V605M624,595V605M480,595V605M615,600H624M498,600H480M492,579V589M768,579V589M264,579V589M640,584H768M360,584H264M425,563V573M624,563V573M312,563V573M493,568H624M378,568H312M444,547V557M648,547V557M192,547V557M518,552H648M375,552H192M492,531V541M888,531V541M168,531V541M614,536H888M389,536H168M474,515V525M744,515V525M144,515V525M554,520H744M381,520H144M482,499V509M768,499V509M216,499V509M549,504H768M409,504H216M469,483V493M816,483V493M192,483V493M549,488H816M397,488H192M494,467V477M864,467V477M168,467V477M575,472H864M410,472H168M477,451V461M840,451V461M144,451V461M559,456H840M397,456H144M472,435V445M816,435V445M144,435V445M550,440H816M397,440H144M478,419V429M792,419V429M144,419V429M564,424H792M399,424H144M475,403V413M840,403V413M120,403V413M557,408H840M391,408H120M482,387V397M840,387V397M168,387V397M564,392H840M403,392H168M481,371V381M864,371V381M144,371V381M564,376H864M390,376H144M481,355V365M864,355V365M144,355V365M566,360H864M398,360H144M479,339V349M840,339V349M144,339V349M561,344H840M398,344H144M486,323V333M840,323V333M144,323V333M567,328H840M402,328H144M484,307V317M840,307V317M168,307V317M562,312H840M405,312H168M480,291V301M816,291V301M144,291V301M556,296H816M400,296H144M482,275V285M840,275V285M144,275V285M564,280H840M403,280H144M474,259V269M816,259V269M144,259V269M553,264H816M398,264H144M481,243V253M840,243V253M144,243V253M565,248H840M398,248H144M482,227V237M864,227V237M120,227V237M571,232H864M394,232H120M477,211V221M864,211V221M168,211V221M565,216H864M395,216H168M484,195V205M816,195V205M144,195V205M565,200H816M403,200H144M488,179V189M768,179V189M168,179V189M565,184H768M400,184H168M480,163V173M816,163V173M216,163V173M562,168H816M409,168H216M492,147V157M816,147V157M168,147V157M579,152H816M402,152H168M474,131V141M816,131V141M144,131V141M563,136H816M402,136H144M492,115V125M816,115V125M168,115V125M572,120H816M397,120H168M468,99V109M864,99V109M144,99V109M582,104H864M395,104H144M450,83V93M696,83V93M216,83V93M555,88H696M330,88H216M486,67V77M696,67V77M288,67V77M521,72H696M390,72H288M432,51V61M672,51V61M360,51V61M516,56H672M396,56H360M510,35V45M552,35V45M336,35V45M525,40H552M414,40H336M204,19V29M216,19V29M192,19V29M210,24H216M198,24H192M276,3V13M288,3V13M264,3V13M282,8H288M270,8H264" style="stroke: #00009a; stroke-width: 1; fill: none;"></path>
     <path d="M396,611V621M572,595V605M497,579V589M435,563V573M443,547V557M494,531V541M467,515V525M475,499V509M474,483V493M493,467V477M477,451V461M475,435V445M479,419V429M475,403V413M482,387V397M478,371V381M482,355V365M479,339V349M484,323V333M484,307V317M479,291V301M481,275V285M477,259V269M481,243V253M481,227V237M478,211V221M483,195V205M481,179V189M487,163V173M491,147V157M483,131V141M495,115V125M473,99V109M455,83V93M468,67V77M484,51V61M468,35V45M204,19V29M276,3V13" style="stroke: #00009a; stroke-width: 1; stroke-dasharray: 3,3; fill: none;"></path>
     <path d="M176,564l8,8m0,-8l-8,8M152,500l8,8m0,-8l-8,8M80,468l8,8m0,-8l-8,8M128,452l8,8m0,-8l-8,8M842,452l8,8m0,-8l-8,8M849,452l8,8m0,-8l-8,8M98,436l8,8m0,-8l-8,8M105,436l8,8m0,-8l-8,8M124,436l8,8m0,-8l-8,8M131,436l8,8m0,-8l-8,8M824,436l8,8m0,-8l-8,8M872,436l8,8m0,-8l-8,8M122,420l8,8m0,-8l-8,8M129,420l8,8m0,-8l-8,8M124,420l8,8m0,-8l-8,8M848,420l8,8m0,-8l-8,8M80,404l8,8m0,-8l-8,8M104,404l8,8m0,-8l-8,8M56,388l8,8m0,-8l-8,8M104,388l8,8m0,-8l-8,8M128,388l8,8m0,-8l-8,8M848,388l8,8m0,-8l-8,8M872,388l8,8m0,-8l-8,8M80,372l8,8m0,-8l-8,8M104,372l8,8m0,-8l-8,8M872,372l8,8m0,-8l-8,8M8,356l8,8m0,-8l-8,8M74,356l8,8m0,-8l-8,8M81,356l8,8m0,-8l-8,8M100,356l8,8m0,-8l-8,8M107,356l8,8m0,-8l-8,8M94,356l8,8m0,-8l-8,8M109,356l8,8m0,-8l-8,8M134,356l8,8m0,-8l-8,8M128,356l8,8m0,-8l-8,8M872,356l8,8m0,-8l-8,8M944,356l8,8m0,-8l-8,8M80,340l8,8m0,-8l-8,8M98,340l8,8m0,-8l-8,8M105,340l8,8m0,-8l-8,8M100,340l8,8m0,-8l-8,8M131,340l8,8m0,-8l-8,8M118,340l8,8m0,-8l-8,8M133,340l8,8m0,-8l-8,8M134,340l8,8m0,-8l-8,8M848,340l8,8m0,-8l-8,8M837,340l8,8m0,-8l-8,8M872,340l8,8m0,-8l-8,8M905,340l8,8m0,-8l-8,8M907,340l8,8m0,-8l-8,8M104,324l8,8m0,-8l-8,8M122,324l8,8m0,-8l-8,8M129,324l8,8m0,-8l-8,8M124,324l8,8m0,-8l-8,8M851,324l8,8m0,-8l-8,8M838,324l8,8m0,-8l-8,8M104,308l8,8m0,-8l-8,8M122,308l8,8m0,-8l-8,8M129,308l8,8m0,-8l-8,8M148,308l8,8m0,-8l-8,8M155,308l8,8m0,-8l-8,8M142,308l8,8m0,-8l-8,8M74,292l8,8m0,-8l-8,8M81,292l8,8m0,-8l-8,8M76,292l8,8m0,-8l-8,8M104,292l8,8m0,-8l-8,8M131,292l8,8m0,-8l-8,8M118,292l8,8m0,-8l-8,8M829,292l8,8m0,-8l-8,8M830,292l8,8m0,-8l-8,8M872,292l8,8m0,-8l-8,8M32,276l8,8m0,-8l-8,8M56,276l8,8m0,-8l-8,8M98,276l8,8m0,-8l-8,8M105,276l8,8m0,-8l-8,8M100,276l8,8m0,-8l-8,8M128,276l8,8m0,-8l-8,8M104,260l8,8m0,-8l-8,8M122,260l8,8m0,-8l-8,8M129,260l8,8m0,-8l-8,8M820,260l8,8m0,-8l-8,8M827,260l8,8m0,-8l-8,8M814,260l8,8m0,-8l-8,8M853,260l8,8m0,-8l-8,8M854,260l8,8m0,-8l-8,8M872,260l8,8m0,-8l-8,8M896,260l8,8m0,-8l-8,8M122,244l8,8m0,-8l-8,8M129,244l8,8m0,-8l-8,8M872,244l8,8m0,-8l-8,8M104,196l8,8m0,-8l-8,8M104,180l8,8m0,-8l-8,8M128,180l8,8m0,-8l-8,8M818,164l8,8m0,-8l-8,8M825,164l8,8m0,-8l-8,8M800,52l8,8m0,-8l-8,8" style="stroke: #00009a; fill: none;"></path>
    </g>
   </svg>
   <g>
    <g transform="translate(0,640)">
     <path d="M0,0h960" style="stroke: black; stroke-width: 1;"></path>
     <path d="M0,-24v24m24,-12v12m24,-12v12m24,-12v12m24,-12v12m24,-24v24m24,-12v12m24,-12v12m24,-12v12m24,-12v12m24,-24v24m24,-12v12m24,-12v12m24,-12v12m24,-12v12m24,-24v24m24,-12v12m24,-12v12m24,-12v12m24,-12v12m24,-24v24m24,-12v12m24,-12v12m24,-12v12m24,-12v12m24,-24v24m24,-12v12m24,-12v12m24,-12v12m24,-12v12m24,-24v24m24,-12v12m24,-12v12m24,-12v12m24,-12v12m24,-24v24m24,-12v12m24,-12v12m24,-12v12m24,-12v12m24,-24v24" style="stroke: black; stroke-width: 1;"></path>
     <g font-family="Arial" font-size="28" space="preserve">
      <text fill="black" text-anchor="middle" dy=".8em" transform="translate(0,6)">
       -4
      </text>
      <text fill="black" text-anchor="middle" dy=".8em" transform="translate(120,6)">
       -3
      </text>
      <text fill="black" text-anchor="middle" dy=".8em" transform="translate(240,6)">
       -2
      </text>
      <text fill="black" text-anchor="middle" dy=".8em" transform="translate(360,6)">
       -1
      </text>
      <text fill="black" text-anchor="middle" dy=".8em" transform="translate(480,6)">
       0
      </text>
      <text fill="black" text-anchor="middle" dy=".8em" transform="translate(600,6)">
       1
      </text>
      <text fill="black" text-anchor="middle" dy=".8em" transform="translate(720,6)">
       2
      </text>
      <text fill="black" text-anchor="middle" dy=".8em" transform="translate(840,6)">
       3
      </text>
      <text fill="black" text-anchor="middle" dy=".8em" transform="translate(960,6)">
       4
      </text>
     </g>
    </g>
    <g>
     <path d="M0,0v640" style="stroke: black; stroke-width: 1;"></path>
     <path d="M36,640h-36m18,-16h-18m18,-16h-18m18,-16h-18m18,-16h-18m36,-16h-36m18,-16h-18m18,-16h-18m18,-16h-18m18,-16h-18m36,-16h-36m18,-16h-18m18,-16h-18m18,-16h-18m18,-16h-18m36,-16h-36m18,-16h-18m18,-16h-18m18,-16h-18m18,-16h-18m36,-16h-36m18,-16h-18m18,-16h-18m18,-16h-18m18,-16h-18m36,-16h-36m18,-16h-18m18,-16h-18m18,-16h-18m18,-16h-18m36,-16h-36m18,-16h-18m18,-16h-18m18,-16h-18m18,-16h-18m36,-16h-36m18,-16h-18m18,-16h-18m18,-16h-18m18,-16h-18m36,-16h-36" style="stroke: black; stroke-width: 1;"></path>
     <g font-family="Arial" font-size="28" space="preserve">
      <text fill="black" text-anchor="end" dy=".4em" transform="translate(-4,640)">
       -4
      </text>
      <text fill="black" text-anchor="end" dy=".4em" transform="translate(-4,560)">
       -3
      </text>
      <text fill="black" text-anchor="end" dy=".4em" transform="translate(-4,480)">
       -2
      </text>
      <text fill="black" text-anchor="end" dy=".4em" transform="translate(-4,400)">
       -1
      </text>
      <text fill="black" text-anchor="end" dy=".4em" transform="translate(-4,320)">
       0
      </text>
      <text fill="black" text-anchor="end" dy=".4em" transform="translate(-4,240)">
       1
      </text>
      <text fill="black" text-anchor="end" dy=".4em" transform="translate(-4,160)">
       2
      </text>
      <text fill="black" text-anchor="end" dy=".4em" transform="translate(-4,80)">
       3
      </text>
      <text fill="black" text-anchor="end" dy=".4em" transform="translate(-4)">
       4
      </text>
     </g>
    </g>
   </g>
  </g>
  <g transform="translate(120,4)" font-family="Arial" font-size="40" space="preserve">
   <path d="M0,0H960V53H0Z" style="fill: none;"></path>
   <text fill="black" text-anchor="middle" dy=".8em" transform="translate(480)">
    py vs px
   </text>
  </g>
  <g transform="translate(936,52)" font-family="Arial" font-size="20" space="preserve">
   <path d="M0,0H240V212H0Z" style="fill: white; stroke: black; stroke-width: 1;"></path>
   <text fill="black" text-anchor="middle" dy=".4em" transform="translate(120,18)">
    hpxpy
   </text>
   <text fill="black" text-anchor="start" dy=".4em" transform="translate(12,53)">
    Entries
   </text>
   <text fill="black" text-anchor="end" dy=".4em" transform="translate(228,53)">
    25000
   </text>
   <text fill="black" text-anchor="start" dy=".4em" transform="translate(12,88)">
    Mean x
   </text>
   <text fill="black" text-anchor="end" dy=".4em" transform="translate(228,88)">
    0.003181
   </text>
   <text fill="black" text-anchor="start" dy=".4em" transform="translate(12,124)">
    Mean y
   </text>
   <text fill="black" text-anchor="end" dy=".4em" transform="translate(228,124)">
    0.009441
   </text>
   <text fill="black" text-anchor="start" dy=".4em" transform="translate(12,159)">
    Std Dev x
   </text>
   <text fill="black" text-anchor="end" dy=".4em" transform="translate(228,159)">
    1.004
   </text>
   <text fill="black" text-anchor="start" dy=".4em" transform="translate(12,194)">
    Std Dev y
   </text>
   <text fill="black" text-anchor="end" dy=".4em" transform="translate(228,194)">
    0.9972
   </text>
   <path d="M0,35h240" style="stroke: black; stroke-width: 1;"></path>
  </g>
 </g>
</svg>
